Newaita-dark/apps/32/suddenstrike4.svg

<svg height="32" viewBox="0 0 32 32" width="32" xmlns="http://www.w3.org/2000/svg" xmlns:xlink="http://www.w3.org/1999/xlink"><linearGradient id="a"><stop offset="0" stop-opacity=".313726"/><stop offset=".222222" stop-opacity=".27451"/><stop offset="1" stop-opacity="0"/></linearGradient><radialGradient id="b" cx="450.908936" cy="189.579361" gradientTransform="matrix(.00000017 -.0781325 -.140638 -.0000001 44.523152 63.595329)" gradientUnits="userSpaceOnUse" r="21.166656" xlink:href="#a"/><radialGradient id="c" cx="450.908936" cy="189.579361" gradientTransform="matrix(-.00000017 .0781325 .140638 .0000001 -12.770119 -7.527482)" gradientUnits="userSpaceOnUse" r="21.166656" xlink:href="#a"/><radialGradient id="d" cx="450.908936" cy="189.579361" gradientTransform="matrix(-.00000017 -.0781325 .140638 -.0000001 -12.770119 63.595329)" gradientUnits="userSpaceOnUse" r="21.166656" xlink:href="#a"/><radialGradient id="e" cx="450.908936" cy="189.579361" gradientTransform="matrix(.00000017 .0781325 -.140638 .0000001 44.52315 -7.527483)" gradientUnits="userSpaceOnUse" r="21.166656" xlink:href="#a"/><linearGradient id="f" gradientTransform="matrix(.0133601 0 0 .062506 12.465386 13.438784)" gradientUnits="userSpaceOnUse" x1="255.323059" x2="255.323044" y1="233.5" y2="254.666656"><stop offset="0" stop-opacity=".27451"/><stop offset="1" stop-opacity="0"/></linearGradient><linearGradient id="g" gradientUnits="userSpaceOnUse" x1="15.876524" x2="15.876524" y1="2.89610399997" y2="28.033934"><stop offset="0" stop-color="#616161"/><stop offset="1" stop-color="#424242"/></linearGradient><linearGradient id="h" gradientUnits="userSpaceOnUse" x1="15.8765048" x2="15.8765048" y1="28.03391172656" y2="2.89612082019"><stop offset="0" stop-color="#bdbdbd"/><stop offset="1" stop-color="#e0e0e0"/></linearGradient><path d="m18.191406 28.035156h2.648438v-1.324218h-2.648438zm0 0" fill="url(#b)"/><path d="m13.5625 28.035156h-2.648438v1.320313h2.648438zm0 0" fill="url(#c)"/><path d="m13.5625 28.035156h-2.648438v-1.324218h2.648438zm0 0" fill="url(#d)"/><path d="m18.191406 28.035156h2.648438v1.320313h-2.648438zm0 0" fill="url(#e)"/><path d="m13.5625 27.703125h4.628906v1.652344h-4.628906zm0 0" fill="url(#f)"/><path d="m15.875 2.894531c6.941406 0 12.570312 5.628907 12.570312 12.570313s-5.628906 12.570312-12.570312 12.570312-12.566406-5.628906-12.566406-12.570312 5.625-12.570313 12.566406-12.570313zm0 0" fill="url(#g)"/><path d="m15.875 28.035156c-6.960938 0-12.566406-5.605468-12.566406-12.570312 0-.039063 0-.082032 0-.121094.066406 6.902344 5.644531 12.445312 12.566406 12.445312s12.503906-5.542968 12.570312-12.445312v.121094c0 6.964844-5.605468 12.570312-12.570312 12.570312zm0 0" fill-opacity=".196078"/><path d="m15.875 2.894531c-6.960938 0-12.566406 5.605469-12.566406 12.570313v.15625c.09375-6.882813 5.664062-12.394532 12.566406-12.394532 6.90625 0 12.476562 5.511719 12.570312 12.394532 0-.050782 0-.105469 0-.15625 0-6.964844-5.605468-12.570313-12.570312-12.570313zm0 0" fill="#fff" fill-opacity=".392157"/><path d="m253.975747-168.691922c111.051895 0 201.105795 90.0539 201.105795 201.105795s-90.0539 201.105796-201.105795 201.105796c-111.051896 0-201.043302-90.053901-201.043302-201.105796s89.991406-201.105795 201.043302-201.105795zm0 0" fill="none" stroke="#333" stroke-linecap="round" stroke-width="3" transform="matrix(.062506 0 0 .062506 0 13.438783)"/><path d="m16.867188 4.878906-1.984376.992188v1.050781c-3.964843.453125-7.097656 3.582031-7.550781 7.550781h-2.039062l.992187 1.984375h1.046875c.453125 3.96875 3.585938 7.101563 7.550781 7.550781v1.042969l1.984376.992188v-2.035157c4.078124-.464843 7.273437-3.757812 7.585937-7.882812h1.015625l.992188-1.984375h-2.085938c-.582031-3.808594-3.648438-6.78125-7.507812-7.21875zm-1.984376 4.042969v1.914063h1.984376v-1.914063c2.757812.414063 4.949218 2.511719 5.492187 5.21875h-1.851563v1.984375h1.953126c-.300782 3.023438-2.617188 5.4375-5.59375 5.882812v-1.914062h-1.984376v1.914062c-2.867187-.429687-5.121093-2.683593-5.546874-5.550781h1.910156v-1.984375h-1.910156c.425781-2.867187 2.679687-5.121094 5.546874-5.550781zm0 0" fill="url(#h)"/><path d="m16.867188 4.878906-1.984376.992188v.332031l1.984376-.992187zm-1.984376 2.042969c-3.964843.453125-7.097656 3.582031-7.550781 7.550781h-2.039062l.164062.332032h1.875c.453125-3.96875 3.585938-7.101563 7.550781-7.550782zm1.984376 0v.332031c3.859374.4375 6.925781 3.410156 7.507812 7.21875h1.921875l.164063-.332031h-2.085938c-.582031-3.808594-3.648438-6.78125-7.507812-7.21875zm3.640624 7.21875v.332031h1.851563c-.019531-.109375-.046875-.222656-.074219-.332031zm-11.113281.332031c-.023437.109375-.042969.21875-.058593.332032h1.910156v-.332032zm13.023438 1.984375c-.429688 2.867188-2.683594 5.121094-5.550781 5.550781v.328126c2.976562-.441407 5.292968-2.855469 5.59375-5.878907zm-13.082031.332031c.425781 2.867188 2.679687 5.121094 5.546874 5.546876v-.328126c-2.753906-.410156-4.945312-2.511718-5.488281-5.21875zm5.546874 3.304688v.332031h1.984376v-.332031zm0 0" fill="#fff"/><path d="m14.882812 8.921875c-2.867187.429687-5.121093 2.683594-5.546874 5.550781h.113281c.628906-2.582031 2.765625-4.5625 5.433593-4.960937zm1.984376 0v.589844c2.554687.378906 4.621093 2.210937 5.347656 4.628906h.144531c-.542969-2.707031-2.734375-4.804687-5.492187-5.21875zm-1.984376 1.914063v.585937h1.984376v-.585937zm11.285157 3.894531-.699219 1.394531h-1.015625c-.3125 4.125-3.507813 7.417969-7.585937 7.882812v.589844c4.078124-.464844 7.273437-3.757812 7.585937-7.882812h1.015625l.992188-1.984375zm-20.875.332031.992187 1.984375h1.046875c.453125 3.964844 3.585938 7.097656 7.550781 7.550781v-.589844c-3.964843-.449218-7.097656-3.582031-7.550781-7.550781h-1.046875l-.699218-1.394531zm15.214843 1.0625v.589844h1.867188c.035156-.191406.066406-.390625.085938-.589844zm-11.171874.332031c.027343.199219.066406.394531.113281.589844h1.796875v-.589844zm5.546874 8.59375v.589844l1.984376.992187v-.589843zm0 0" fill-opacity=".235294"/><path d="m1019.902658 295.011213-119.988548 59.994274v63.537243c-239.740898 27.39896-429.171637 216.593501-456.570597 456.570597h-123.295319l59.994274 119.988548h63.301045c27.39896 239.977096 216.829699 429.407835 456.570597 456.570597v63.064847l119.988548 59.994274v-123.059121c246.590638-28.107553 439.800544-227.222408 458.696378-476.647421h61.411462l59.994274-119.988548h-126.129695c-35.193491-230.292981-220.608865-410.039605-453.972419-436.493773zm-119.988548 244.464857v115.736985h119.988548v-115.736985c166.755738 25.036981 299.262776 151.875268 332.094288 315.560433h-111.957818v119.988548h118.098964c-18.18724 182.817197-158.252612 328.787518-338.235434 355.714081v-115.736985h-119.988548v115.736985c-173.36928-25.981772-309.655485-162.267977-335.401059-335.637257h115.500787v-119.988548h-115.500787c25.745574-173.36928 162.031779-309.655485 335.401059-335.637257zm0 0" fill="none" stroke="#212121" stroke-linecap="round" stroke-width="11.338583" transform="scale(.016538)"/></svg>

<?xml version="1.0" encoding="UTF-8"?>
<svg xmlns="http://www.w3.org/2000/svg" xmlns:xlink="http://www.w3.org/1999/xlink" width="32px" height="32px" viewBox="0 0 32 32" version="1.1">
<defs>
<radialGradient id="radial0" gradientUnits="userSpaceOnUse" cx="450.908936" cy="189.579361" fx="450.908936" fy="189.579361" r="21.166656" gradientTransform="matrix(0.00000017417,-0.0781325,-0.140638,-0.000000101539,44.523152,63.595329)">
<stop offset="0" style="stop-color:rgb(0%,0%,0%);stop-opacity:0.313726;"/>
<stop offset="0.222222" style="stop-color:rgb(0%,0%,0%);stop-opacity:0.27451;"/>
<stop offset="1" style="stop-color:rgb(0%,0%,0%);stop-opacity:0;"/>
</radialGradient>
<radialGradient id="radial1" gradientUnits="userSpaceOnUse" cx="450.908936" cy="189.579361" fx="450.908936" fy="189.579361" r="21.166656" gradientTransform="matrix(-0.00000017417,0.0781325,0.140638,0.000000101539,-12.770119,-7.527482)">
<stop offset="0" style="stop-color:rgb(0%,0%,0%);stop-opacity:0.313726;"/>
<stop offset="0.222222" style="stop-color:rgb(0%,0%,0%);stop-opacity:0.27451;"/>
<stop offset="1" style="stop-color:rgb(0%,0%,0%);stop-opacity:0;"/>
</radialGradient>
<radialGradient id="radial2" gradientUnits="userSpaceOnUse" cx="450.908936" cy="189.579361" fx="450.908936" fy="189.579361" r="21.166656" gradientTransform="matrix(-0.00000017417,-0.0781325,0.140638,-0.000000101539,-12.770119,63.595329)">
<stop offset="0" style="stop-color:rgb(0%,0%,0%);stop-opacity:0.313726;"/>
<stop offset="0.222222" style="stop-color:rgb(0%,0%,0%);stop-opacity:0.27451;"/>
<stop offset="1" style="stop-color:rgb(0%,0%,0%);stop-opacity:0;"/>
</radialGradient>
<radialGradient id="radial3" gradientUnits="userSpaceOnUse" cx="450.908936" cy="189.579361" fx="450.908936" fy="189.579361" r="21.166656" gradientTransform="matrix(0.00000017417,0.0781325,-0.140638,0.000000101539,44.52315,-7.527483)">
<stop offset="0" style="stop-color:rgb(0%,0%,0%);stop-opacity:0.313726;"/>
<stop offset="0.222222" style="stop-color:rgb(0%,0%,0%);stop-opacity:0.27451;"/>
<stop offset="1" style="stop-color:rgb(0%,0%,0%);stop-opacity:0;"/>
</radialGradient>
<linearGradient id="linear0" gradientUnits="userSpaceOnUse" x1="255.323059" y1="233.5" x2="255.323044" y2="254.666656" gradientTransform="matrix(0.0133601,0,0,0.062506,12.465386,13.438784)">
<stop offset="0" style="stop-color:rgb(0%,0%,0%);stop-opacity:0.27451;"/>
<stop offset="1" style="stop-color:rgb(0%,0%,0%);stop-opacity:0;"/>
</linearGradient>
<linearGradient id="linear1" gradientUnits="userSpaceOnUse" x1="254" y1="-168.666672" x2="254" y2="233.5" gradientTransform="matrix(0.062506,0,0,0.062506,0.000000164078,13.438783)">
<stop offset="0" style="stop-color:rgb(38.039216%,38.039216%,38.039216%);stop-opacity:1;"/>
<stop offset="1" style="stop-color:rgb(25.882354%,25.882354%,25.882354%);stop-opacity:1;"/>
</linearGradient>
<linearGradient id="linear2" gradientUnits="userSpaceOnUse" x1="254" y1="326.307678" x2="254" y2="-261.474335" gradientTransform="matrix(0.0427672,0,0,0.0427672,5.013636,14.078646)">
<stop offset="0" style="stop-color:rgb(74.117649%,74.117649%,74.117649%);stop-opacity:1;"/>
<stop offset="1" style="stop-color:rgb(87.843138%,87.843138%,87.843138%);stop-opacity:1;"/>
</linearGradient>
</defs>
<g id="surface1">
<path style=" stroke:none;fill-rule:nonzero;fill:url(#radial0);" d="M 18.191406 28.035156 L 20.839844 28.035156 L 20.839844 26.710938 L 18.191406 26.710938 Z M 18.191406 28.035156 "/>
<path style=" stroke:none;fill-rule:nonzero;fill:url(#radial1);" d="M 13.5625 28.035156 L 10.914062 28.035156 L 10.914062 29.355469 L 13.5625 29.355469 Z M 13.5625 28.035156 "/>
<path style=" stroke:none;fill-rule:nonzero;fill:url(#radial2);" d="M 13.5625 28.035156 L 10.914062 28.035156 L 10.914062 26.710938 L 13.5625 26.710938 Z M 13.5625 28.035156 "/>
<path style=" stroke:none;fill-rule:nonzero;fill:url(#radial3);" d="M 18.191406 28.035156 L 20.839844 28.035156 L 20.839844 29.355469 L 18.191406 29.355469 Z M 18.191406 28.035156 "/>
<path style=" stroke:none;fill-rule:nonzero;fill:url(#linear0);" d="M 13.5625 27.703125 L 18.191406 27.703125 L 18.191406 29.355469 L 13.5625 29.355469 Z M 13.5625 27.703125 "/>
<path style=" stroke:none;fill-rule:nonzero;fill:url(#linear1);" d="M 15.875 2.894531 C 22.816406 2.894531 28.445312 8.523438 28.445312 15.464844 C 28.445312 22.40625 22.816406 28.035156 15.875 28.035156 C 8.933594 28.035156 3.308594 22.40625 3.308594 15.464844 C 3.308594 8.523438 8.933594 2.894531 15.875 2.894531 Z M 15.875 2.894531 "/>
<path style=" stroke:none;fill-rule:nonzero;fill:rgb(0%,0%,0%);fill-opacity:0.196078;" d="M 15.875 28.035156 C 8.914062 28.035156 3.308594 22.429688 3.308594 15.464844 C 3.308594 15.425781 3.308594 15.382812 3.308594 15.34375 C 3.375 22.246094 8.953125 27.789062 15.875 27.789062 C 22.796875 27.789062 28.378906 22.246094 28.445312 15.34375 C 28.445312 15.382812 28.445312 15.425781 28.445312 15.464844 C 28.445312 22.429688 22.839844 28.035156 15.875 28.035156 Z M 15.875 28.035156 "/>
<path style=" stroke:none;fill-rule:nonzero;fill:rgb(100%,100%,100%);fill-opacity:0.392157;" d="M 15.875 2.894531 C 8.914062 2.894531 3.308594 8.5 3.308594 15.464844 C 3.308594 15.515625 3.308594 15.570312 3.308594 15.621094 C 3.402344 8.738281 8.972656 3.226562 15.875 3.226562 C 22.78125 3.226562 28.351562 8.738281 28.445312 15.621094 C 28.445312 15.570312 28.445312 15.515625 28.445312 15.464844 C 28.445312 8.5 22.839844 2.894531 15.875 2.894531 Z M 15.875 2.894531 "/>
<path style="fill:none;stroke-width:3;stroke-linecap:round;stroke-linejoin:miter;stroke:rgb(20%,20%,20%);stroke-opacity:1;stroke-miterlimit:4;" d="M 253.975747 -168.691922 C 365.027642 -168.691922 455.081542 -78.638022 455.081542 32.413873 C 455.081542 143.465768 365.027642 233.519669 253.975747 233.519669 C 142.923851 233.519669 52.932445 143.465768 52.932445 32.413873 C 52.932445 -78.638022 142.923851 -168.691922 253.975747 -168.691922 Z M 253.975747 -168.691922 " transform="matrix(0.062506,0,0,0.062506,0,13.438783)"/>
<path style=" stroke:none;fill-rule:nonzero;fill:url(#linear2);" d="M 16.867188 4.878906 L 14.882812 5.871094 L 14.882812 6.921875 C 10.917969 7.375 7.785156 10.503906 7.332031 14.472656 L 5.292969 14.472656 L 6.285156 16.457031 L 7.332031 16.457031 C 7.785156 20.425781 10.917969 23.558594 14.882812 24.007812 L 14.882812 25.050781 L 16.867188 26.042969 L 16.867188 24.007812 C 20.945312 23.542969 24.140625 20.25 24.453125 16.125 L 25.46875 16.125 L 26.460938 14.140625 L 24.375 14.140625 C 23.792969 10.332031 20.726562 7.359375 16.867188 6.921875 Z M 14.882812 8.921875 L 14.882812 10.835938 L 16.867188 10.835938 L 16.867188 8.921875 C 19.625 9.335938 21.816406 11.433594 22.359375 14.140625 L 20.507812 14.140625 L 20.507812 16.125 L 22.460938 16.125 C 22.160156 19.148438 19.84375 21.5625 16.867188 22.007812 L 16.867188 20.09375 L 14.882812 20.09375 L 14.882812 22.007812 C 12.015625 21.578125 9.761719 19.324219 9.335938 16.457031 L 11.246094 16.457031 L 11.246094 14.472656 L 9.335938 14.472656 C 9.761719 11.605469 12.015625 9.351562 14.882812 8.921875 Z M 14.882812 8.921875 "/>
<path style=" stroke:none;fill-rule:nonzero;fill:rgb(100%,100%,100%);fill-opacity:1;" d="M 16.867188 4.878906 L 14.882812 5.871094 L 14.882812 6.203125 L 16.867188 5.210938 Z M 14.882812 6.921875 C 10.917969 7.375 7.785156 10.503906 7.332031 14.472656 L 5.292969 14.472656 L 5.457031 14.804688 L 7.332031 14.804688 C 7.785156 10.835938 10.917969 7.703125 14.882812 7.253906 Z M 16.867188 6.921875 L 16.867188 7.253906 C 20.726562 7.691406 23.792969 10.664062 24.375 14.472656 L 26.296875 14.472656 L 26.460938 14.140625 L 24.375 14.140625 C 23.792969 10.332031 20.726562 7.359375 16.867188 6.921875 Z M 20.507812 14.140625 L 20.507812 14.472656 L 22.359375 14.472656 C 22.339844 14.363281 22.3125 14.25 22.285156 14.140625 Z M 9.394531 14.472656 C 9.371094 14.582031 9.351562 14.691406 9.335938 14.804688 L 11.246094 14.804688 L 11.246094 14.472656 Z M 22.417969 16.457031 C 21.988281 19.324219 19.734375 21.578125 16.867188 22.007812 L 16.867188 22.335938 C 19.84375 21.894531 22.160156 19.480469 22.460938 16.457031 Z M 9.335938 16.789062 C 9.761719 19.65625 12.015625 21.910156 14.882812 22.335938 L 14.882812 22.007812 C 12.128906 21.597656 9.9375 19.496094 9.394531 16.789062 Z M 14.882812 20.09375 L 14.882812 20.425781 L 16.867188 20.425781 L 16.867188 20.09375 Z M 14.882812 20.09375 "/>
<path style=" stroke:none;fill-rule:nonzero;fill:rgb(0%,0%,0%);fill-opacity:0.235294;" d="M 14.882812 8.921875 C 12.015625 9.351562 9.761719 11.605469 9.335938 14.472656 L 9.449219 14.472656 C 10.078125 11.890625 12.214844 9.910156 14.882812 9.511719 Z M 16.867188 8.921875 L 16.867188 9.511719 C 19.421875 9.890625 21.488281 11.722656 22.214844 14.140625 L 22.359375 14.140625 C 21.816406 11.433594 19.625 9.335938 16.867188 8.921875 Z M 14.882812 10.835938 L 14.882812 11.421875 L 16.867188 11.421875 L 16.867188 10.835938 Z M 26.167969 14.730469 L 25.46875 16.125 L 24.453125 16.125 C 24.140625 20.25 20.945312 23.542969 16.867188 24.007812 L 16.867188 24.597656 C 20.945312 24.132812 24.140625 20.839844 24.453125 16.714844 L 25.46875 16.714844 L 26.460938 14.730469 Z M 5.292969 15.0625 L 6.285156 17.046875 L 7.332031 17.046875 C 7.785156 21.011719 10.917969 24.144531 14.882812 24.597656 L 14.882812 24.007812 C 10.917969 23.558594 7.785156 20.425781 7.332031 16.457031 L 6.285156 16.457031 L 5.585938 15.0625 Z M 20.507812 16.125 L 20.507812 16.714844 L 22.375 16.714844 C 22.410156 16.523438 22.441406 16.324219 22.460938 16.125 Z M 9.335938 16.457031 C 9.363281 16.65625 9.402344 16.851562 9.449219 17.046875 L 11.246094 17.046875 L 11.246094 16.457031 Z M 14.882812 25.050781 L 14.882812 25.640625 L 16.867188 26.632812 L 16.867188 26.042969 Z M 14.882812 25.050781 "/>
<path style="fill:none;stroke-width:11.338583;stroke-linecap:round;stroke-linejoin:miter;stroke:rgb(12.941177%,12.941177%,12.941177%);stroke-opacity:1;stroke-miterlimit:4;" d="M 1019.902658 295.011213 L 899.91411 355.005487 L 899.91411 418.54273 C 660.173212 445.94169 470.742473 635.136231 443.343513 875.113327 L 320.048194 875.113327 L 380.042468 995.101875 L 443.343513 995.101875 C 470.742473 1235.078971 660.173212 1424.50971 899.91411 1451.672472 L 899.91411 1514.737319 L 1019.902658 1574.731593 L 1019.902658 1451.672472 C 1266.493296 1423.564919 1459.703202 1224.450064 1478.599036 975.025051 L 1540.010498 975.025051 L 1600.004772 855.036503 L 1473.875077 855.036503 C 1438.681586 624.743522 1253.266212 444.996898 1019.902658 418.54273 Z M 899.91411 539.47607 L 899.91411 655.213055 L 1019.902658 655.213055 L 1019.902658 539.47607 C 1186.658396 564.513051 1319.165434 691.351338 1351.996946 855.036503 L 1240.039128 855.036503 L 1240.039128 975.025051 L 1358.138092 975.025051 C 1339.950852 1157.842248 1199.88548 1303.812569 1019.902658 1330.739132 L 1019.902658 1215.002147 L 899.91411 1215.002147 L 899.91411 1330.739132 C 726.54483 1304.75736 590.258625 1168.471155 564.513051 995.101875 L 680.013838 995.101875 L 680.013838 875.113327 L 564.513051 875.113327 C 590.258625 701.744047 726.54483 565.457842 899.91411 539.47607 Z M 899.91411 539.47607 " transform="matrix(0.016538,0,0,0.016538,0,0)"/>
</g>
</svg>
